X: 023
T: Girl I Left Behind Me
S: Viola Ruth "Pioneer Western Folk Tunes" 1948 p.2 #3
R: march
Z: 2019 John Chambers <jc:trillian.mit.edu>
M: 2/4
L: 1/16
K: G
V: 1 name=" "
g2 |\
e2d2 B2G2 | ABAG E3F | G2G2 GABc | d4 B2(gf) |\
e2d2 B2G2 | ABAG E3G | F2A2 D2(EF) | G4 G2 :|
|: d2 |\
B2d2e2f2 | g3d B2G2 | GABc d2(df) | g4 f2(gf) |\
e2d2 B2G2 | ABAG E3G | F2A2 D2(EF) | G4 G2 :|

